X: 14
T:Martin Wynnes
N:An Sheabin
D:Bothy Band: Out of the wind into the sun
M:C
L:1/8
K:D
AF ~F2 GE ~E2| F2 AF EFDB,| A,B,DE ~F2 FB| ABde fedB|
AF ~F2 GE ~E2| F2 AF EFDB,| A,B,DE ~F2 FB|  ABde fd d2 :|
|: faaf gfeg| fedf edBc|(3ddB AF DEFB| ABde fe e2|
agfa gfeg| fedf edBc| (3ddB AF DEFB| ABde fd d2:|
